<?xml version="1.0" encoding="UTF-8"?>
<map version="1.10" tiledversion="1.12.2" orientation="orthogonal" renderorder="right-down" width="50" height="12" tilewidth="16" tileheight="16" infinite="0" nextlayerid="15" nextobjectid="12">
 <editorsettings>
  <export target="../../../../../../../Downloads/map.json" format="json"/>
 </editorsettings>
 <tileset firstgid="1" source="../../../../../../../Documents/FacuTileSet.tsx"/>
 <tileset firstgid="113" source="FacuTileSet.tsx"/>
 <group id="5" name="tilemap">
  <layer id="6" name="background" width="50" height="12">
   <data encoding="csv">
46,46,46,46,46,46,46,46,46,46,46,46,46,46,46,46,46,46,46,46,46,46,46,46,46,46,46,46,46,46,46,46,46,46,46,46,46,46,46,46,46,46,46,46,46,46,46,46,46,46,
46,110,111,46,46,46,46,46,46,46,46,46,46,46,46,110,111,46,46,46,46,46,46,110,111,46,46,46,46,46,46,46,46,46,46,46,46,46,46,46,46,46,46,46,46,46,46,110,111,46,
46,46,46,46,46,46,46,46,46,46,46,46,46,46,46,46,46,46,46,46,46,46,46,46,46,46,46,46,46,46,46,110,111,46,46,46,46,46,46,46,46,46,46,46,46,46,46,46,46,46,
46,46,46,46,46,46,46,46,46,46,46,110,111,46,46,46,46,46,46,46,46,46,46,46,46,46,46,46,46,46,46,46,46,46,46,46,46,46,46,46,110,111,46,46,46,46,46,46,46,46,
48,46,46,46,46,46,46,46,46,46,46,46,46,46,46,46,46,46,46,46,46,46,46,46,46,46,48,46,46,46,46,46,46,46,46,46,46,46,46,46,46,46,46,46,46,46,46,46,48,46,
78,78,78,78,78,78,48,78,78,78,78,78,78,78,48,78,78,78,78,78,78,78,78,78,78,78,78,78,78,78,78,48,78,78,78,78,78,78,78,78,78,48,78,78,78,78,78,78,78,78,
80,80,80,80,80,80,80,80,80,80,80,80,80,5,5,6,7,8,8,80,80,80,80,80,80,80,80,80,80,80,80,80,80,80,80,80,80,80,80,80,80,80,80,80,80,80,80,80,80,80,
80,80,80,80,80,80,80,80,80,80,80,80,80,21,21,22,23,24,24,80,80,80,80,80,80,80,80,80,80,80,80,80,80,80,80,80,80,80,80,80,80,80,80,80,80,80,80,80,80,80,
80,80,80,80,80,80,80,80,80,80,80,80,80,37,37,38,39,40,40,80,80,80,80,80,80,80,80,80,80,80,80,80,80,80,80,80,80,80,80,80,80,80,80,80,80,80,80,80,80,80,
17,17,17,17,17,17,17,17,17,17,17,17,17,17,17,2,2,2,2,2,2,2,2,2,2,2,2,2,2,2,17,2,17,17,17,17,17,17,17,17,17,2,2,17,17,17,17,17,17,17,
2,2,2,2,2,2,2,2,2,2,2,2,2,2,2,2,2,17,17,17,2,2,2,2,2,2,2,2,2,2,2,2,2,2,2,2,2,2,2,2,2,2,2,17,17,17,17,17,17,17,
17,17,17,17,17,17,17,17,17,17,17,17,17,17,17,17,17,17,17,17,17,17,2,2,2,2,2,17,17,17,17,17,17,17,17,17,17,17,17,17,17,17,17,17,17,17,17,17,17,17
</data>
  </layer>
  <layer id="14" name="decoration" width="50" height="12">
   <data encoding="csv">
0,0,0,0,0,0,0,0,0,0,0,0,0,0,0,0,0,0,0,0,0,0,0,0,0,0,0,0,0,0,0,0,0,0,0,0,0,0,0,0,0,0,0,0,0,0,0,0,0,0,
0,0,0,0,0,0,0,0,0,0,0,0,0,0,0,0,0,0,0,0,0,0,0,0,0,0,0,0,0,0,0,0,0,0,0,0,0,0,0,0,0,0,0,0,0,0,0,0,0,0,
0,0,0,0,0,0,0,0,0,0,0,0,0,0,0,0,0,0,0,0,0,0,0,0,0,0,0,0,0,0,0,0,0,0,0,0,0,0,0,0,0,0,0,0,0,0,0,0,0,0,
0,0,0,0,0,0,0,0,0,0,0,0,0,0,0,0,0,0,0,0,0,0,0,0,0,0,0,0,0,0,0,0,0,0,0,0,0,0,0,0,0,0,0,0,0,0,0,0,0,0,
78,78,78,78,78,78,78,78,78,78,78,78,78,78,78,78,78,78,78,78,78,78,78,78,78,78,78,78,78,78,78,78,78,78,78,78,78,78,78,78,78,78,78,78,78,78,78,78,78,78,
80,80,80,80,80,80,80,80,80,80,80,80,80,80,80,80,80,80,80,80,80,80,80,80,80,80,80,80,80,80,80,80,80,80,80,80,80,80,80,80,80,80,80,80,80,80,80,80,80,80,
0,0,0,0,0,0,0,0,0,0,0,0,0,5,5,6,7,8,8,0,0,0,0,0,0,0,0,0,0,0,0,0,0,0,0,0,0,0,0,0,0,0,0,0,0,0,0,0,0,0,
0,0,0,0,0,0,0,0,0,0,0,0,0,21,21,22,23,24,24,0,0,0,0,0,0,0,0,0,0,0,0,0,0,0,0,0,0,0,0,0,0,0,0,0,0,0,0,0,0,0,
90,91,90,91,90,91,90,91,0,0,9,10,11,37,37,38,39,40,41,42,55,56,53,54,55,56,0,0,0,0,0,0,28,0,0,28,60,0,0,0,0,0,0,0,0,28,0,0,59,60,
106,107,106,107,106,107,106,107,104,105,25,26,27,34,34,2,2,34,57,58,71,72,69,70,71,72,61,99,99,99,61,34,44,34,34,44,76,34,34,93,93,93,93,49,51,44,93,93,75,76,
59,92,2,2,2,2,2,2,2,59,60,2,2,92,2,2,2,0,73,74,0,84,85,86,87,0,0,0,0,0,0,59,60,0,0,0,0,0,0,28,0,0,0,65,67,0,0,28,0,0,
75,108,0,0,0,0,0,0,0,75,76,88,89,108,0,0,0,0,0,0,0,100,101,102,103,99,99,99,0,0,0,75,76,0,0,0,0,0,0,44,0,0,0,81,0,0,0,44,0,0
</data>
  </layer>
 </group>
</map>
